X: 1
T: Stage, The
M: 4/4
L: 1/8
R: hornpipe
K: Gmaj
|:BGFG (3EFG DB,|G,B,DG cBAG|AGAB cBcB|(3ABA (3GFE (3DED (3CB,A,|
G,B,DG cBcd|edef ga (3gfe|d<b c<a B<g A<f|1 ecAF G3A:|2 ecAF G2 (3def||
|:ga (3gfe dgbd|ceac Bdg2|dBG2 (3gfg ag|fgef defd|
ga (3gfe dgbd|ceac Bdg2|(3gag (3fgf egfg|1 ecAF G2 (3def:|2 ecAF G4||
